icons/barricade-fill.svg

<svg xmlns="http://www.w3.org/2000/svg" width="24" height="24" fill="none"><g clip-path="url(#a)"><g><path fill="#121212" d="M19.556 19H21V21H3V19H4.444L5.334 15H18.667L19.556 19ZM17.333 9L18.223 13H5.777L6.666 9H17.332H17.333ZM16.889 7H7.11L7.825 3.783C7.8744 3.56077 7.99815 3.36205 8.17579 3.21968C8.35344 3.07731 8.57435 2.99981 8.802 3H15.198C15.4255 3.00004 15.6462 3.07764 15.8236 3.21999C16.001 3.36234 16.1246 3.56094 16.174 3.783L16.889 7Z"/></g></g><defs><clipPath id="a"><rect width="24" height="24" fill="white"/></clipPath></defs></svg>

<svg width="24" height="24" fill="none" xmlns="http://www.w3.org/2000/svg"><g clip-path="url(#a)"><path d="M19.556 19H21v2H3v-2h1.444l.89-4h13.333l.889 4ZM17.333 9l.89 4H5.777l.889-4h10.667Zm-.444-2H7.11l.715-3.217A1 1 0 0 1 8.802 3h6.396a1 1 0 0 1 .976.783L16.889 7Z" /></g><defs><clipPath id="a"><path fill="#fff" d="M0 0h24v24H0z"/></clipPath></defs></svg>
